resources/img/refre/ico-card.svg

<svg width="24" height="24" viewBox="0 0 24 24" fill="none" xmlns="http://www.w3.org/2000/svg">
<path d="M21.1987 15.2002C21.6404 15.2002 21.9983 15.5584 21.9985 16V19.2002C21.9985 19.642 21.6406 20 21.1987 20H2.79932C2.58718 19.9999 2.38388 19.9156 2.23389 19.7656C2.08393 19.6156 1.99946 19.4123 1.99951 19.2002L2.00049 16C2.0007 15.5583 2.35862 15.2002 2.80029 15.2002C3.24212 15.2003 3.60021 15.5591 3.6001 16.001V18.4004H20.3989V16C20.3991 15.5584 20.757 15.2002 21.1987 15.2002ZM11.9985 3C12.4403 3 12.7982 3.35807 12.7983 3.7998V13.5137L16.4224 9.74512C16.7286 9.42698 17.2349 9.41751 17.5532 9.72363C17.8715 10.0298 17.8817 10.536 17.5757 10.8545L12.5757 16.0547C12.4249 16.2116 12.2161 16.2998 11.9985 16.2998C11.7811 16.2998 11.5731 16.2113 11.4224 16.0547L6.42236 10.8545C6.11624 10.5361 6.12571 10.0299 6.44385 9.72363C6.76231 9.41742 7.26944 9.42669 7.57568 9.74512L11.1987 13.5137V3.7998C11.1988 3.35813 11.5569 3.00011 11.9985 3Z" fill="white"/>
<path d="M22.1608 5.76183C22.1608 4.69553 21.2824 3.82812 20.2025 3.82812H3.79765C2.71779 3.82812 1.83936 4.69553 1.83936 5.76183V8.34194H22.1608V5.76183Z" stroke="#9157DA" stroke-width="1.5" stroke-linecap="round" stroke-linejoin="round"/>
<path d="M1.83936 18.2314C1.83936 19.3032 2.71779 20.1651 3.79765 20.1651H20.2025C21.2824 20.1651 22.1608 19.2977 22.1608 18.2314V12.2148H1.83936V18.2314Z" stroke="#9157DA" stroke-width="1.5" stroke-linecap="round" stroke-linejoin="round"/>
<path d="M22.1608 8.34375H1.83936V12.2112H22.1608V8.34375Z" fill="#9157DA" stroke="#9157DA" stroke-width="1.5" stroke-linecap="round" stroke-linejoin="round"/>
<path d="M19.4697 16.4141H15.1279" stroke="#9157DA" stroke-width="1.5" stroke-linecap="round" stroke-linejoin="round"/>
</svg>

<?xml version="1.0" encoding="UTF-8"?>
<svg id="_레이어_1" data-name="레이어_1" xmlns="http://www.w3.org/2000/svg" version="1.1" viewBox="0 0 24 24">
  <!-- Generator: Adobe Illustrator 29.1.0, SVG Export Plug-In . SVG Version: 2.1.0 Build 142)  -->
  <defs>
    <style>
      .st0 {
        fill: none;
      }

      .st0, .st1 {
        stroke: #0050ca;
        stroke-linecap: round;
        stroke-linejoin: round;
        stroke-width: 1.5px;
      }

      .st1 {
        fill: #0050ca;
      }
    </style>
  </defs>
  <path class="st0" d="M22.2,5.8c0-1.1-.9-1.9-2-1.9H3.8c-1.1,0-2,.9-2,1.9v2.6h20.3v-2.6Z"/>
  <path class="st0" d="M1.8,18.2c0,1.1.9,1.9,2,1.9h16.4c1.1,0,2-.9,2-1.9v-6H1.8v6Z"/>
  <path class="st1" d="M22.2,8.3H1.8v3.9h20.3v-3.9Z"/>
  <path class="st0" d="M19.5,16.4h-4.3"/>
</svg>
